X:47
T:Birks of Abergeldy
R:Reel
B:The Athole Collection
M:C|
L:1/8
K:F
FGAc ~f2 f>c|~f2 fa gfga|FGAc ~fgag|~fdcA G2d2:|
FGAd dFAF|cFAc d/c/B/A/ GA|FGAc ~fgag|~fdcA G2d2|
FGAf cfAf|cfAc d/c/B/A/ GA|FGAc ~fgag|~fdcA G2d2||

